X:36
T:Jack on the Green
% Lunardi?
M:9/8
L:1/8
K:D
C2E D2F E3 | A3  E2G TF>ED|(CDE) (D/E/FD) E3 |d3 D2E TF>ED:|
def efg fed| e3  E2G TF>ED| def   efg     fec|d3 D2E TF>ED |
def efg fed|Tc2d efg Tf2e | agf   gfe     fec|d3 D2E TF>ED:|

% @@@@@@@@@@@@@@@@@@@@@@@@@@@@@@@@@@

%% 37. ===============================================================================

% @CROMDEL HILL.@
%
% *SETT and cast off the first Couple, lead up and cast down.  Then cross over and cast
% down the 2d Couple.  *Lead up, and cast up the 2d Couple.  Then lead down, and Right
% and Left with 2d Couple.

% @@@@@@@@@@@@@@@@@@@@@@@@@@@@@@@@@@

